!!!!SEGMENT: Ric1001a-Missa_O_genitrix-Kyrie.krn
!!!id: Ric1001a
!!!AGN: Mass; Kyrie
!!!voices: 3-4
!!!COM: Jean Richafort
!!!OTL: Kyrie
!!!OPR: Missa O genitrix
**kern	**kern	**kern	**kern
*part4	*part3	*part2	*part1
*staff4	*staff3	*staff2	*staff1
*I"Bassus	*I"Tenor	*I"Altus	*I"Superius
*I'B	*I'T	*I'A	*I'S
*clefF4	*clefGv2	*clefG2	*clefG2
*k[b-]	*k[b-]	*k[b-]	*k[b-]
*F:	*F:	*F:	*F:
*M2/1	*M2/1	*M2/1	*M2/1
*met(C|)	*met(C|)	*met(C|)	*met(C|)
!!section: Kyrie I
!!!OMD: Kyrie I
=1	=1	=1	=1
0r	0r	0r	0g
=2	=2	=2	=2
0r	0G	0r	1g
.	.	.	[1g
=3	=3	=3	=3
0r	1G	0d	2g]
.	.	.	2a
.	[1G	.	2b-y
.	.	.	2cc
=4	=4	=4	=4
0G	2G]	1d	[0dd
.	2A	.	.
.	2B-y	1d	.
.	2c	.	.
=5	=5	=5	=5
1G	0d	1.g	1dd]
1G	.	.	[1dd
.	.	4f	.
.	.	4e	.
=6	=6	=6	=6
1.B-y	1.d	0f	2dd]
.	.	.	2cc
.	.	.	1b-y
4A	2B-y	.	.
4G	.	.	.
=7	=7	=7	=7
1.F	2c	1.f	1.a
.	2.d	.	.
.	4c	.	.
[2G	4B-y	[2e	[2b-y
.	4A	.	.
=8	=8	=8	=8
4G]	2B-y	2e]	4b-]
4F	.	.	4a
2D	1A	1d	2f
1E	.	.	1g
.	2G	2c	.
=9	=9	=9	=9
0D	0A	1.d	1.f
.	.	4c	2g
.	.	4B-y	.
=10	=10	=10	=10
0r	0r	2c	2a
.	.	2d	2f
.	.	1e-i	2.g
.	.	.	4a
=11	=11	=11	=11
1r	2r	1d	4b-y
.	.	.	4cc
.	1B-y	.	1dd
2r	.	1r	.
[2F	2c	.	[2cc
=12	=12	=12	=12
2F]	2A	0r	2cc]
2G	2B-y	.	1b-y
2E	2c	.	.
2F	[2d	.	2a
=13	=13	=13	=13
2.G	4d]	0r	1b-y
.	4c	.	.
.	4B-y	.	.
4F	4A	.	.
4E	2G	.	1r
4D	.	.	.
2F	[2c	.	.
=14	=14	=14	=14
4E	2c]	0r	0r
4D	.	.	.
4C	1B-y	.	.
4BB-y	.	.	.
1C	.	.	.
.	2A	.	.
=15	=15	=15	=15
1BB-y	0B-y	1r	1r
[1E-X	.	2.G	[1g
.	.	4A	.
=16	=16	=16	=16
1E-]	1G	2B-y	1g]
.	.	2c	.
1D	1A	[1d	1f
=17	=17	=17	=17
1G	1B-y	2d]	1g
.	.	2e	.
1F	1c	1f	1a
=18	=18	=18	=18
2.B-y	2.d	2r	1.b-y
.	.	2.B-y	.
4A	4c	.	.
2G	4B-y	.	.
.	4A	4G	.
2F	[2c	2A	[2a
=19	=19	=19	=19
1E-i	4c]	2B-y	2a]
.	4B-y	.	.
.	4A	2c	1g
.	4G	.	.
1D	1A	[1d	.
.	.	.	2f#i
=20	=20	=20	=20
2r	2.G	2d]	0g
2.G	.	4c	.
.	4A	4d	.
.	4B-y	4e	.
4A	4c	4d	.
[2B-y	[2d	[2g	.
=21	=21	=21	=21
4B-]	4d]	2g]	1r
4A	4c	.	.
4G	1c	1f	.
4F	.	.	.
1G	.	.	1g
.	2B-y	2e	.
=22	=22	=22	=22
[0F	1c	[0f	2.a
.	.	.	4b-y
.	2.A	.	2cc
.	.	.	2dd
.	4B-y	.	.
=23	=23	=23	=23
0F]	2c	0f]	2cc
.	2d	.	2.ff
.	2c	.	.
.	.	.	4ee
.	[2f	.	2dd
=24	=24	=24	=24
0r	4f]	0r	2cc
.	4e	.	.
.	2d	.	2ff
.	2c	.	2ee
.	2d	.	[2dd
=25	=25	=25	=25
1r	1e	2r	2dd]
.	.	2g	2cc#i
2r	[1d	2a	[1dd
[2G	.	[2b-y	.
=26	=26	=26	=26
4G]	1d]	4b-]	1dd]
4A	.	4a	.
2.B-y	.	2g	.
.	1r	2f	1r
4A	.	.	.
2G	.	4B-y	.
.	.	4c	.
=27	=27	=27	=27
2F	2r	4d	0r
.	.	4B-y	.
2G	2B-y	1e-i	.
1A	1c	.	.
.	.	4d	.
.	.	4c	.
=28	=28	=28	=28
1G	2d	2B-y	2r
.	1e-i	1g	2b-y
1r	.	.	1cc
.	4d	2a	.
.	4c	.	.
=29	=29	=29	=29
0r	4B-y	1b-y	1dd
.	4c	.	.
.	4d	.	.
.	4e	.	.
.	2f	2a	4cc
.	.	.	4b-y
.	2g	[2g	4a
.	.	.	4g
=30	=30	=30	=30
1r	1d	4g]	1a
.	.	8fL	.
.	.	8eJ	.
.	.	2f	.
2r	1G	2g	[1g
[2B-y	.	[2d	.
=31	=31	=31	=31
2B-]	1r	2d]	2g]
2c	.	2e	2.a
1d	2r	[1f	.
.	.	.	4g
.	[2B-y	.	4f
.	.	.	4e
=32	=32	=32	=32
2r	2B-]	1f]	2d
1F	2c	.	2.a
.	2d	2r	.
.	.	.	4f
2G	2B-y	[2e	2b-y
=33	=33	=33	=33
1A	1c	2e]	4a
.	.	.	4b-y
.	.	2f	4cc
.	.	.	4a
4G	2r	[1g	[1b-y
4F	.	.	.
4E	[2B-y	.	.
4D	.	.	.
=34	=34	=34	=34
1E	2B-]	1g]	2b-]
.	2c	.	4a
.	.	.	4g
2.D	1d	1f	2b-y
.	.	.	[2a
4E	.	.	.
=35	=35	=35	=35
2F	4c	4f	2a]
.	4B-y	4e	.
2G	4A	4d	1g
.	4G	4c	.
1D	1A	1d	.
.	.	.	2f#i
=36	=36	=36	=36
0Gl	0Gl	0dl	0gl
=37||	=37||	=37||	=37||
*M2/1	*M2/1	*M2/1	*M2/1
*met(C|)	*met(C|)	*met(C|)	*met(C|)
!!section: Christe
!!!OMD: Christe
0r	0r	0g	1r
.	.	.	1g
=38	=38	=38	=38
0r	1G	1g	2.b-y
.	.	.	4cc
.	2.B-y	1g	4dd
.	.	.	4cc
.	.	.	4dd
.	4c	.	4ee
=39	=39	=39	=39
0r	4d	2.f	2.ff
.	4c	.	.
.	4d	.	.
.	4e	4g	8eeL
.	.	.	8ddJ
.	2f	4a	4cc
.	.	4f	4dd
.	2e	[2g	[2ee
=40	=40	=40	=40
0r	2c	4g]	2ee]
.	.	4f	.
.	2d	4e	1dd
.	.	4d	.
.	1A	1e	.
.	.	.	2cc#i
=41	=41	=41	=41
0r	1r	1d	[0dd
.	1G	1r	.
=42	=42	=42	=42
0r	2.B-y	1d	0dd]
.	4c	.	.
.	4d	2.f	.
.	4c	.	.
.	4d	.	.
.	4e	4g	.
=43	=43	=43	=43
0r	2.f	4a	0r
.	.	4g	.
.	.	4a	.
.	8eL	4b-y	.
.	8dJ	.	.
.	2c	4cc	.
.	.	4a	.
.	[2d	[2b-y	.
=44	=44	=44	=44
0r	4d]	4b-]	0r
.	4c	4a	.
.	2B-y	1g	.
.	1A	.	.
.	.	2f#i	.
=45	=45	=45	=45
0r	[0G	1g	0dd
.	.	2r	.
.	.	2G	.
=46	=46	=46	=46
0r	0G]	2B-y	1dd
.	.	2c	.
.	.	2d	1dd
.	.	2e	.
=47	=47	=47	=47
0r	1r	2.f	1.cc
.	.	4g	.
.	2r	2a	.
.	2G	[2b-y	[2dd
=48	=48	=48	=48
0r	2B-y	2b-]	4dd]
.	.	.	4cc
.	2c	1a	4b-y
.	.	.	4a
.	2d	.	1b-y
.	2e	2g	.
=49	=49	=49	=49
0r	2.f	2.a	[0a
.	4e	4g	.
.	4d	4f	.
.	4c	4e	.
.	[2d	[2f	.
=50	=50	=50	=50
0r	2d]	2f]	0a]
.	4c	4e	.
.	4B-y	4d	.
.	1A	2e	.
.	.	[2f	.
=51	=51	=51	=51
0r	[0d	4f]	1r
.	.	4e	.
.	.	4d	.
.	.	4c	.
.	.	2B-y	2r
.	.	2b-y	2d
=52	=52	=52	=52
0r	1d]	2a	2f
.	.	1g	2g
.	1d	.	2a
.	.	2f	2b-y
=53	=53	=53	=53
0r	2.c	1g	2.cc
.	4d	.	4b-y
.	4e	1r	4g
.	4c	.	4a
.	2d	.	2b-y
=54	=54	=54	=54
0r	4c	0r	4a
.	4B-y	.	4g
.	4A	.	1g
.	4G	.	.
.	1A	.	.
.	.	.	2f#i
=55	=55	=55	=55
0r	1G	1.d	2.g
.	.	.	4a
.	2r	.	2b-y
.	2G	2e	[2g
=56	=56	=56	=56
0r	2A	2f	4g]
.	.	.	4f
.	2B-y	2d	1f
.	1G	1g	.
.	.	.	2e
=57	=57	=57	=57
0r	1d	2a	2f
.	.	2b-y	1dd
.	1r	1g	.
.	.	.	2ee
=58	=58	=58	=58
0r	1d	2r	2ff
.	.	2f	2.dd
.	2e	2g	.
.	.	.	4cc
.	2f	[2a	[2cc
=59	=59	=59	=59
0r	1d	2a]	2cc]
.	.	4g	2bnXi
.	.	4f	.
.	[1c	2e	1cc
.	.	[2g	.
=60	=60	=60	=60
0r	1c]	2g]	2r
.	.	2a	2cc
.	1G	2b-y	2dd
.	.	[2g	2b-X
=61	=61	=61	=61
0r	2A	4g]	2cc
.	.	4f	.
.	2B-y	1f	1dd
.	1G	.	.
.	.	2e	4cc
.	.	.	4b-y
=62	=62	=62	=62
0r	0Fl	0fl	0al
=63||	=63||	=63||	=63||
*M3/1	*M3/1	*M3/1	*M3/1
*met(C|3)	*met(C|3)	*met(C|3)	*met(C|3)
!!section: Kyrie II
!!!OMD: Kyrie II
0G	0B-y	0d	0dd
1G	1B-y	1d	1dd
=64	=64	=64	=64
0G	1.B-y	0g	1.dd
.	2A	.	2cc
1G	2B-y	1G	1b-y
.	2c	.	.
=65	=65	=65	=65
1F	1.d	1A	1a
0E	.	1B-y	0g
.	4c#i	.	.
.	4BnXi	.	.
.	1c#i	1G	.
=66	=66	=66	=66
0.D	[0.d	0A	1.f
.	.	.	2g
.	.	1r	2a
.	.	.	2f
=67	=67	=67	=67
0.r	0d]	0f	0b-y
.	1e	1g	1cc
=68	=68	=68	=68
0.r	1d	1a	1dd
.	1.g	1.b-y	1.ee
.	2f	2a	2dd
=69	=69	=69	=69
0.r	1d	1f	0dd
.	1e	1g	.
.	1f	1a	1cc
=70	=70	=70	=70
1r	1.B-y	0b-y	0.dd
1d	.	.	.
.	2c	.	.
1d	2d	[1B-y	.
.	2e	.	.
=71	=71	=71	=71
1.d	1f	2B-]	0.r
.	.	2c	.
.	1B-y	2d	.
2c	.	2e	.
1A	1c	1f	.
=72	=72	=72	=72
1B-y	1d	1g	0.r
1.c	1.e	1.a	.
2B-y	2d	2g	.
=73	=73	=73	=73
1G	0d	0g	0.r
0A	.	.	.
.	1c	1f#i	.
=74	=74	=74	=74
*M2/1	*M2/1	*M2/1	*M2/1
*met(C|)	*met(C|)	*met(C|)	*met(C|)
1.G	1d	1g	2r
.	.	.	1b-y
.	1r	2r	.
2A	.	[2f	2cc
=75	=75	=75	=75
2.B-y	0r	2f]	1dd
.	.	2g	.
4A	.	.	.
2F	.	2a	4cc
.	.	.	4b-y
2G	.	[2g	4a
.	.	.	4g
=76	=76	=76	=76
1d	1r	2g]	1a
.	.	2f	.
1G	2r	2e	1g
.	[2B-y	[2d	.
=77	=77	=77	=77
2r	2B-]	2d]	1r
1F	2c	1a	.
.	1d	.	2r
2G	.	2g	2b-y
=78	=78	=78	=78
2A	2c	2f	2cc
1G	2B-y	2d	2.dd
.	1A	2e	.
.	.	.	4cc
2F	.	2f	2a
=79	=79	=79	=79
1E	2G	2g	2b-y
.	1g	2G	2cc
1D	.	1A	1dd
.	2f#i	.	.
=80	=80	=80	=80
2r	1.g	1G	2r
1B-y	.	.	1dd
.	.	1r	.
2c	2e	.	4cc
.	.	.	4b-y
=81	=81	=81	=81
2d	2f	1r	2.a
1c	2g	.	.
.	.	.	4b-y
.	2e	2r	2cc
2B-y	[2f	2d	[2dd
=82	=82	=82	=82
1A	4f]	2e	2dd]
.	4e	.	.
.	4d	2f	1cc
.	4c	.	.
1G	1d	2.g	.
.	.	.	2b-y
.	.	4f	.
=83	=83	=83	=83
2r	1.c	4e	2cc
.	.	4d	.
1F	.	2.f	1a
.	.	4e	.
2G	2B-y	2d	4g
.	.	.	4f
=84	=84	=84	=84
2A	2c	2c	2.e
1G	2d	1B-y	.
.	.	.	4f
.	2B-y	.	2g
2F	[2c	2A	[2a
=85	=85	=85	=85
1E	4c]	2B-y	4a]
.	4B-y	.	4g
.	4A	2c	1g
.	4G	.	.
1D	1A	1d	.
.	.	.	2f#i
=86	=86	=86	=86
0Gl	0Gl	0dl	0gl
==	==	==	==
*-	*-	*-	*-
!!!system-decoration: [*]
!!!RDF**kern: i = editorial accidental
!!!RDF**kern: l = terminal long
!!!ENC: David Nivarlet
!!!END: 2025/10/16
!!!EED: Benjamin Ory
!!!EEV: 2025/10/17
!!!YEC: Copyright 2025 Benjamin Ory, All Rights Reserved
!!!ONB: Translated from MusicXML on 2025/10/17